X: 132
T: Irish Rover
M:4/4
R:reel
L:1/8
Z:added by Alf warnock alf0@rogers.com - www.alfwarnock.info/alfs
K:G
dB|"G"G2Bc d2ga|b2ag "C"g2fe|"G"d2ed B2cB|"D7"A6dB|
"G"G2Bc d2ga|"Em"b2ag "C"g2fe|"G"d2ec "D7"B2cA|"G"G6dd|
"G"g2ga b2ag|"D7"aa2f d3d|"G"g3a b2g2|"D7"a3/2b/2af d2dB|
"G"G2Bc d2ga|b2ag "C"c2BA|"G"G2Bd g2b2|"D7"a4 "G"g4|]

